X:1
T:29
T:29
T:Études enfantines op. 37
T:Henry Lemoine
C:Henry Lemoine
%%score { 1 | ( 2 3 ) }
L:1/8
Q:1/4=134
M:2/4
K:F
V:1 treble nm="Piano" snm="Pno."
V:2 bass 
V:3 bass 
V:1
"^Allegro"!mf! .c.a .e.f | .!1!d.!3!^f !^!g2 | .!2!e.!4!g c(!3!f/g/ | .a).g !^!f2 | .c.a .e.f | %5
 .!1!d.!3!^f !^!g2 | .!2!e.!4!g (!^!cd/e/ | .f) z .!^!F z :|!ff! !1!!3![eg]2 [ec']2 | %9
 (!1!!3![f=b]c' !^![fd']2) | (!1!!4![f=b]a [fg]a/b/ |!>(! [ec'].!2!g) .!1!!3![ce]!>)!.!2!!4![df] | %12
 !1!!3![eg]2 [ec']2 | (!1!!3![f=b]c' !^![fd']2) | (!1!!4![f=b]a [fg]a/b/ | .[ec']) z z2 | %16
!mf! .c.a .e.f | .!1!d.!3!^f !^!g2 | .!2!e.!4!g .c(!3!f/g/ | .a).g !^!f2 | .c.a .e.f | %21
 .!1!d.!3!^f !^!g2 | .!2!e.!4!g (!^!cd/e/ | .f) z .!^![Acf] z!fine! |:!p! .!3!f z .!1!d z | %25
 .f z .d z |!<(! .!3!f.!1!g .a.b!<)! |!ff!{/d'} .c'.=b .c' z |!p! .!3!f z .!1!c z | .f z .c z | %30
!>(! (!>!!4!f.=e) ._e.c!>)! | .!3!B(A/c/ .B) z :|!mf! (!^!!1!c/!3!f/g/f/ !^!!1!c/!3!f/g/f/ | %33
"_cresc." !^!!1!d/!3!f/g/f/ !^!!1!d/!3!f/g/f/ | !^!!1!e/!3!g/a/g/ !^!!1!e/!3!g/a/g/ | %35
!ff! .!1!f).!3!a .c' z |!mf! (!^!!1!c/!3!f/g/f/ !^!!1!c/!3!f/g/f/ | %37
"_cresc." !^!!1!d/!3!f/g/f/ !^!!1!d/!3!f/g/f/ | !^!!1!e/!3!g/a/g/ !^!!1!e/!3!g/a/g/ |!f! .f) z z2 | %40
!p! .!3!f z .!1!d z | .f z .d z |!<(! .!3!f.!1!g .a.b!<)! |!ff!{/d'} .c'.=b .c' z | %44
!p! .!3!f z .!1!c z | .f z .c z |!>(! (!>!!4!f.=e) ._e.c!>)! | .!3!B(A/c/ .B) z!D.C.! || %48
V:2
 [F,A,C]2 [F,A,C]2 | [F,B,D]2 [F,B,D]2 | [F,B,C]2 [F,B,C]2 | [F,A,C]2 [F,A,C]2 | %4
 [F,A,C]2 [F,A,C]2 | [F,B,D]2 [F,B,D]2 | [F,B,C]2 [F,B,C]2 | .[F,A,C] z .!^![F,A,C] z :| %8
 [C,G,]2 [C,G,]2 | [C,G,]2 [C,G,]2 | [C,G,]2 [C,G,]2 | [C,G,]2 [C,G,]2 | [C,G,]2 [C,G,]2 | %13
 [C,G,]2 [C,G,]2 | [C,G,]2 [C,G,]2 | .!2![C,G,] z!f! !^!C2 | [F,A,C]2 [F,A,C]2 | %17
 [F,B,D]2 [F,B,D]2 | [F,B,C]2 [F,B,C]2 | [F,A,C]2 [F,A,C]2 | [F,A,C]2 [F,A,C]2 | %21
 [F,B,D]2 [F,B,D]2 | [F,B,C]2 [F,B,C]2 | .[F,A,C] z .!^![F,A,C] z |:[K:treble] .[B,D] z .[B,F] z | %25
 .[B,D] z .[B,F] z | [B,DF]4 | .[A,_EF].[A,EF] .[A,EF] z | .[A,_EF] z .[A,EF] z | %29
 .[A,_EF] z .[A,EF] z | .[A,_EF] z .[A,EF] z | (!4![B,D]F [B,D]) z :|[K:bass] [F,A,C]2 [F,A,C]2 | %33
 [F,B,D]2 [F,B,D]2 | [F,B,C]2 [F,B,C]2 | .[F,A,C].[F,A,C] .[F,A,C] z | [F,A,C]2 [F,A,C]2 | %37
 [F,B,D]2 [F,B,D]2 | [F,B,C]2 [F,B,C]2 | .[F,A,C] z[K:treble] !^!!1!F2- | F4- | F4 | [B,DF]4 | %43
 .[A,_EF].[A,EF] .[A,EF] z | F4- | F4 | [A,_EF]4 | (DF [B,D]) z || %48
V:3
 x4 | x4 | x4 | x4 | x4 | x4 | x4 | x4 :| x4 | x4 | x4 | x4 | x4 | x4 | x4 | x4 | x4 | x4 | x4 | %19
 x4 | x4 | x4 | x4 | x4 |:[K:treble] x4 | x4 | x4 | x4 | x4 | x4 | x4 | x4 :|[K:bass] x4 | x4 | %34
 x4 | x4 | x4 | x4 | x4 | x2[K:treble] x2 | .[B,D] z .[B,D] z | .[B,D] z .[B,D] z | x4 | x4 | %44
 .[A,_E] z .[A,E] z | .[A,_E] z .[A,E] z | x4 | !4!B,2 x2 || %48

